apps/assets/icons/car-big.svg

<svg width="100" height="47" viewBox="0 0 100 47" fill="none" xmlns="http://www.w3.org/2000/svg">
<path d="M84.0087 25.571C89.8407 25.571 94.5707 30.299 94.5707 36.133C94.5707 36.584 94.5337 37.024 94.4767 37.461C93.8217 42.666 89.3907 46.694 84.0087 46.694C78.4827 46.694 73.9507 42.444 73.4927 37.034C73.4687 36.736 73.4477 36.437 73.4477 36.133C73.4477 30.299 78.1757 25.571 84.0087 25.571ZM87.9797 33.142L86.3627 34.76C86.4887 34.976 86.5877 35.209 86.6497 35.457H88.9297C88.8127 34.595 88.4817 33.805 87.9797 33.142ZM88.9397 36.832H86.6417C86.5777 37.077 86.4817 37.307 86.3547 37.52L87.9757 39.141C88.4777 38.478 88.8167 37.692 88.9397 36.832ZM84.6947 41.058C85.5537 40.938 86.3357 40.601 86.9957 40.102L85.3847 38.491C85.1717 38.616 84.9397 38.706 84.6957 38.768L84.6947 41.058ZM84.6947 33.494C84.9457 33.557 85.1777 33.658 85.3957 33.786L87.0107 32.169C86.3467 31.665 85.5587 31.331 84.6947 31.211V33.494ZM83.3207 31.212C82.4567 31.332 81.6677 31.666 81.0047 32.171L82.6207 33.787C82.8367 33.659 83.0717 33.558 83.3207 33.495V31.212V31.212ZM83.3207 41.056V38.768C83.0767 38.706 82.8457 38.613 82.6327 38.489L81.0207 40.101C81.6807 40.6 82.4637 40.936 83.3207 41.056ZM80.0377 39.145L81.6637 37.518C81.5357 37.304 81.4337 37.078 81.3687 36.831H79.0887C79.2117 37.69 79.5347 38.486 80.0377 39.145ZM81.3657 35.458C81.4287 35.209 81.5277 34.977 81.6527 34.761L80.0347 33.143C79.5347 33.807 79.2037 34.595 79.0857 35.458H81.3657V35.458Z" fill="black"/>
<path d="M18.8007 25.571C24.6317 25.571 29.3627 30.299 29.3627 36.133C29.3627 36.584 29.3257 37.024 29.2677 37.461C28.6127 42.666 24.1827 46.694 18.8007 46.694C13.2737 46.694 8.74067 42.444 8.28367 37.034C8.26067 36.736 8.23867 36.437 8.23867 36.133C8.23867 30.299 12.9667 25.571 18.8007 25.571ZM22.7717 33.142L21.1537 34.76C21.2807 34.976 21.3797 35.209 21.4427 35.457H23.7207C23.6037 34.595 23.2737 33.805 22.7717 33.142ZM23.7307 36.832H21.4327C21.3707 37.077 21.2727 37.307 21.1457 37.52L22.7677 39.141C23.2697 38.478 23.6077 37.692 23.7307 36.832ZM19.4867 41.058C20.3447 40.938 21.1277 40.601 21.7877 40.102L20.1757 38.491C19.9637 38.616 19.7317 38.706 19.4877 38.768V41.058H19.4867ZM19.4867 33.494C19.7367 33.557 19.9687 33.658 20.1867 33.786L21.8017 32.169C21.1377 31.665 20.3497 31.331 19.4867 31.211V33.494ZM18.1117 31.212C17.2467 31.332 16.4597 31.666 15.7967 32.171L17.4107 33.787C17.6287 33.659 17.8637 33.558 18.1117 33.495V31.212ZM18.1117 41.056V38.768C17.8677 38.706 17.6357 38.613 17.4237 38.489L15.8107 40.101C16.4717 40.6 17.2547 40.936 18.1117 41.056ZM14.8287 39.145L16.4557 37.518C16.3267 37.304 16.2257 37.078 16.1587 36.831H13.8807C14.0027 37.69 14.3247 38.486 14.8287 39.145ZM16.1567 35.458C16.2197 35.209 16.3187 34.977 16.4437 34.761L14.8247 33.143C14.3247 33.807 13.9947 34.595 13.8777 35.458H16.1567V35.458Z" fill="black"/>
<path d="M23.1727 0.0010539L51.5077 0.358054C52.3577 0.368054 53.0377 1.06605 53.0267 1.91605C53.0177 2.75305 52.3387 3.42505 51.5067 3.43505C51.4927 3.43505 51.4817 3.43505 51.4687 3.43505L23.1337 3.07805C22.2837 3.06805 21.6037 2.37005 21.6137 1.52005C21.6257 0.670053 22.3467 -0.0309461 23.1727 0.0010539Z" fill="black"/>
<path d="M34.3797 35.844H67.8337C68.6837 35.844 69.3717 36.533 69.3717 37.383C69.3717 38.234 68.6837 38.922 67.8337 38.922H34.3797C33.5297 38.922 32.8417 38.234 32.8417 37.383C32.8417 36.533 33.5297 35.844 34.3797 35.844Z" fill="black"/>
<path d="M0.428673 27.062C0.785673 26.626 1.32367 26.374 1.88667 26.374H3.63567L5.41267 6.916C5.51067 5.842 6.41867 5.025 7.49867 5.041L57.5267 5.791C58.3047 5.803 59.0367 6.167 59.5147 6.782L66.1457 15.305L87.8597 16.65C89.0407 16.724 90.1217 17.339 90.7857 18.318L92.0087 20.117C92.0087 20.117 94.1027 20.854 94.6637 21.318C95.1507 21.721 96.1197 23.387 96.1197 23.387C96.3037 23.647 96.3257 23.99 96.1787 24.271C96.0327 24.554 95.7407 24.731 95.4217 24.731V26.627H97.2287C98.2557 26.628 99.0867 27.46 99.0867 28.485V31.909C99.0867 33.181 98.0557 34.214 96.7817 34.214H95.5467L92.3637 25.432C92.0737 24.632 91.3137 24.099 90.4637 24.099H79.3537C78.7237 24.099 78.1287 24.393 77.7467 24.895L70.2627 34.719H31.1987L25.7167 25.469C25.3537 24.855 24.6937 24.479 23.9787 24.479H13.7777C13.0577 24.479 12.3927 24.862 12.0297 25.484L6.65467 34.72H4.72667C2.69967 34.72 0.953668 33.285 0.561668 31.295L0.0376663 28.629C-0.0753337 28.074 0.0686728 27.5 0.428673 27.062ZM48.0187 17.27H59.5467V13.729H61.8817L58.3877 9.116C58.2377 8.917 58.0037 8.799 57.7547 8.795L46.0607 8.621V13.729L48.0187 17.27ZM28.9557 17.27H41.3877V8.551L26.3947 8.328V14.708L28.9557 17.27ZM22.5487 17.27V8.27L9.64167 8.078C9.42167 8.075 9.23967 8.244 9.22267 8.463L8.61667 17.27H22.5487Z" fill="black"/>
</svg>

<svg fill="none" xmlns="http://www.w3.org/2000/svg" viewBox="0 0 100 47">
  <path d="M84.009 25.571c5.832 0 10.562 4.728 10.562 10.562 0 .451-.037.891-.094 1.328-.655 5.205-5.086 9.233-10.468 9.233-5.526 0-10.058-4.25-10.516-9.66a11.182 11.182 0 01-.045-.901c0-5.834 4.728-10.562 10.56-10.562zm3.97 7.571l-1.616 1.618c.126.216.225.449.287.697h2.28a4.915 4.915 0 00-.95-2.315zm.96 3.69h-2.297c-.064.245-.16.475-.287.688l1.62 1.621a4.982 4.982 0 00.965-2.309zm-4.244 4.226a4.933 4.933 0 002.3-.956l-1.61-1.611a2.638 2.638 0 01-.69.277v2.29zm0-7.564c.25.063.483.164.7.292l1.616-1.617a4.935 4.935 0 00-2.316-.958v2.283zm-1.374-2.282a4.922 4.922 0 00-2.316.959l1.616 1.616c.216-.128.45-.229.7-.292v-2.283zm0 9.844v-2.288a2.672 2.672 0 01-.688-.279l-1.612 1.612c.66.499 1.443.835 2.3.955zm-3.283-1.911l1.626-1.627a2.641 2.641 0 01-.295-.687h-2.28c.123.859.446 1.655.949 2.314zm1.328-3.687c.063-.249.162-.481.287-.697l-1.618-1.618a4.944 4.944 0 00-.95 2.315h2.28zM18.8 25.571c5.832 0 10.563 4.728 10.563 10.562 0 .451-.037.891-.095 1.328-.655 5.205-5.085 9.233-10.467 9.233-5.527 0-10.06-4.25-10.517-9.66a11.662 11.662 0 01-.045-.901c0-5.834 4.728-10.562 10.562-10.562zm3.972 7.571l-1.618 1.618c.127.216.226.449.289.697h2.278a4.914 4.914 0 00-.95-2.315zm.959 3.69h-2.298c-.062.245-.16.475-.287.688l1.622 1.621a4.98 4.98 0 00.963-2.309zm-4.244 4.226a4.938 4.938 0 002.3-.956l-1.611-1.611a2.618 2.618 0 01-.688.277v2.29h-.001zm0-7.564c.25.063.482.164.7.292l1.615-1.617a4.936 4.936 0 00-2.315-.958v2.283zm-1.375-2.282a4.914 4.914 0 00-2.315.959l1.614 1.616a2.7 2.7 0 01.7-.292v-2.283zm0 9.844v-2.288a2.657 2.657 0 01-.688-.279l-1.613 1.612a4.945 4.945 0 002.3.955zm-3.283-1.911l1.627-1.627a2.68 2.68 0 01-.297-.687H13.88c.122.859.444 1.655.948 2.314zm1.328-3.687c.063-.249.162-.481.287-.697l-1.62-1.618c-.5.664-.83 1.452-.946 2.315h2.279zM23.173.001l28.335.357a1.538 1.538 0 01-.001 3.077h-.038l-28.335-.357a1.54 1.54 0 01-1.52-1.558c.012-.85.733-1.55 1.559-1.519zM34.38 35.844h33.454a1.538 1.538 0 010 3.078H34.38a1.538 1.538 0 010-3.078z" fill="#000"/>
  <path d="M.429 27.062a1.887 1.887 0 011.458-.688h1.749L5.413 6.916a2.062 2.062 0 012.086-1.875l50.028.75c.778.012 1.51.376 1.988.991l6.63 8.523L87.86 16.65a3.823 3.823 0 012.926 1.668l1.223 1.799s2.094.737 2.655 1.201c.487.403 1.456 2.069 1.456 2.069.184.26.206.603.059.884a.85.85 0 01-.757.46v1.896h1.807a1.859 1.859 0 011.858 1.858v3.424a2.305 2.305 0 01-2.305 2.305h-1.235l-3.183-8.782a2.022 2.022 0 00-1.9-1.333h-11.11a2.02 2.02 0 00-1.607.796l-7.484 9.824H31.199l-5.482-9.25a2.017 2.017 0 00-1.738-.99H13.778c-.72 0-1.385.383-1.748 1.005L6.655 34.72H4.727a4.246 4.246 0 01-4.165-3.425l-.524-2.666a1.876 1.876 0 01.39-1.567zm47.59-9.792h11.528v-3.541h2.335l-3.494-4.613a.809.809 0 00-.633-.321L46.06 8.621v5.108l1.958 3.541zm-19.063 0h12.432V8.551l-14.993-.223v6.38l2.56 2.562zm-6.407 0v-9L9.642 8.078a.415.415 0 00-.42.385l-.605 8.807h13.932z" fill="#000"/>
</svg>
